X:1
T: Balendalloch's Dream
C:
R:Reel
Q:232
K:A
M:4/4
L:1/8
|:e|c2Ac ef1/2g1/2 af|=g2gB =GB1/2c1/2 dB|c2Ac ef1/2g1/2 af|=ge fd e2Ae|
c2Ac ef1/2g1/2 af|=g2gB =GB1/2c1/2 dB|c2Ac ef1/2g1/2 af|=ge fd e2A^g|
a2ea cA af|=g2dg B=GdB|a2ea cA af|=ge fd e2A^g|
a2ea cA af|=g2dg B=GdB|ce df e=g fa|=ge fd e2A:|
